Simply-Green-Circles/scalable/devices/colorimeter-colorhug.svg

<?xml version="1.0" encoding="UTF-8" standalone="no"?>
<svg
   xmlns:dc="http://purl.org/dc/elements/1.1/"
   xmlns:cc="http://creativecommons.org/ns#"
   xmlns:rdf="http://www.w3.org/1999/02/22-rdf-syntax-ns#"
   xmlns:svg="http://www.w3.org/2000/svg"
   xmlns="http://www.w3.org/2000/svg"
   xmlns:sodipodi="http://sodipodi.sourceforge.net/DTD/sodipodi-0.dtd"
   xmlns:inkscape="http://www.inkscape.org/namespaces/inkscape"
   width="48"
   height="48"
   viewBox="0 0 12.7 12.7"
   version="1.1"
   id="svg4"
   sodipodi:docname="colorimeter-colorhug.svg"
   inkscape:version="0.92.4 (5da689c313, 2019-01-14)">
  <metadata
     id="metadata10">
    <rdf:RDF>
      <cc:Work
         rdf:about="">
        <dc:format>image/svg+xml</dc:format>
        <dc:type
           rdf:resource="http://purl.org/dc/dcmitype/StillImage" />
        <dc:title></dc:title>
      </cc:Work>
    </rdf:RDF>
  </metadata>
  <defs
     id="defs8" />
  <sodipodi:namedview
     pagecolor="#ffffff"
     bordercolor="#666666"
     borderopacity="1"
     objecttolerance="10"
     gridtolerance="10"
     guidetolerance="10"
     inkscape:pageopacity="0"
     inkscape:pageshadow="2"
     inkscape:window-width="1087"
     inkscape:window-height="480"
     id="namedview6"
     showgrid="false"
     inkscape:zoom="4.9166667"
     inkscape:cx="2.1355932"
     inkscape:cy="24"
     inkscape:window-x="0"
     inkscape:window-y="25"
     inkscape:window-maximized="0"
     inkscape:current-layer="svg4" />
  <path
     d="m 6.344,0.073 a 6.29,6.29 0 0 0 -6.29,6.29 6.29,6.29 0 0 0 6.29,6.288 6.29,6.29 0 0 0 6.29,-6.289 6.29,6.29 0 0 0 -6.29,-6.29 z M 6.326,1.009 A 5.407,5.407 0 0 1 11.733,6.416 5.407,5.407 0 0 1 6.326,11.823 5.407,5.407 0 0 1 0.92,6.416 5.407,5.407 0 0 1 6.326,1.01 Z M 5.961,1.953 c -0.047,0 -0.094,0 -0.139,0.005 A 1.47,1.47 0 0 0 5.087,2.253 1.215,1.215 0 0 0 4.608,3.246 V 5.494 H 3.268 V 5.493 A 0.428,0.428 0 0 0 2.84,5.922 v 3.857 a 0.427,0.427 0 0 0 0.429,0.428 H 6.537 A 0.427,0.427 0 0 0 6.965,9.779 V 5.922 A 0.427,0.427 0 0 0 6.537,5.494 H 5.197 V 3.246 A 0.61,0.61 0 0 1 5.454,2.712 c 0.157,-0.12 0.392,-0.177 0.627,-0.165 0.235,0.01 0.462,0.09 0.626,0.239 0.164,0.149 0.277,0.345 0.277,0.663 0,1.276 0.862,2.068 1.768,2.045 C 9.256,5.48 9.746,5.212 10.077,4.72 L 9.746,4.13 C 9.524,4.67 9.116,4.894 8.733,4.904 8.167,4.918 7.573,4.474 7.573,3.449 7.573,2.982 7.374,2.599 7.094,2.344 A 1.572,1.572 0 0 0 6.099,1.958 4.377,4.377 0 0 0 5.961,1.953 Z m 3.95,1.183 V 3.21 l 0.46,0.81 c 0.008,-0.024 0.013,-0.05 0.02,-0.074 z m 0,0.202 C 9.908,3.401 9.9,3.465 9.893,3.522 L 10.317,4.242 10.353,4.13 9.912,3.338 Z M 9.874,3.633 C 9.867,3.686 9.848,3.731 9.838,3.781 l 0.386,0.662 C 10.242,4.407 10.264,4.37 10.28,4.333 Z M 9.82,3.891 C 9.805,3.944 9.78,3.991 9.764,4.038 l 0.35,0.608 c 0.024,-0.038 0.052,-0.07 0.074,-0.11 L 9.82,3.89 Z"
     id="path2"
     inkscape:connector-curvature="0"
     style="fill:#2ca02c" />
</svg>

<svg xmlns="http://www.w3.org/2000/svg" width="48" height="48" viewBox="0 0 12.7 12.7"><path d="M6.34.07a6.29 6.29 0 0 0-6.29 6.3 6.29 6.29 0 0 0 6.3 6.28 6.29 6.29 0 0 0 6.28-6.29A6.29 6.29 0 0 0 6.34.07zm-.01.94a5.4 5.4 0 0 1 5.4 5.4 5.4 5.4 0 0 1-5.4 5.41 5.4 5.4 0 0 1-5.41-5.4A5.4 5.4 0 0 1 6.32 1zm-.37.94h-.14a1.47 1.47 0 0 0-.73.3 1.22 1.22 0 0 0-.48 1v2.24H3.27a.43.43 0 0 0-.43.43v3.86a.43.43 0 0 0 .43.43h3.27a.43.43 0 0 0 .42-.43V5.92a.43.43 0 0 0-.42-.43H5.2V3.25a.61.61 0 0 1 .25-.54c.16-.12.4-.18.63-.16a1 1 0 0 1 .63.24c.16.14.27.34.27.66 0 1.27.87 2.07 1.77 2.04.5-.01 1-.28 1.33-.77l-.33-.59c-.23.54-.63.76-1.02.77-.56.02-1.16-.43-1.16-1.45 0-.47-.2-.85-.48-1.1a1.57 1.57 0 0 0-1-.4 4.38 4.38 0 0 0-.13 0zm3.95 1.19v.07l.46.81.02-.07-.48-.81zm0 .2l-.02.18.43.72.03-.11-.44-.8zm-.04.3c0 .05-.02.1-.03.14l.38.66.06-.1-.4-.7zm-.05.25l-.06.15.35.6.08-.1-.37-.65z" fill="#2ca02c"/></svg>
